X:1
T:Sheltering Wing, LM
T:Sheltering Wing, LM
T:Joseph Barnby, 1883
T:Public Domain Courtesy of the Cyber Hymnal™
C:Joseph Barnby, 1883
Z:Public Domain
Z:Courtesy of the Cyber Hymnal™
%%score ( 1 2 ) ( 3 4 )
L:1/8
M:3/4
K:A
V:1 treble 
V:2 treble 
V:3 bass 
V:4 bass 
V:1
 [CA]2 [CG]2 [CF]2 | [DG]4 [DE]2 | ([CF]2 [B,E]2) [A,C]2 | [A,D]6 | [B,E]2 [EF]2 [EG]2 | %5
 [EA]4 [EG]2 | ([EF]2 G2) F2 | E6 | E2 [B,F]2 [EG]2 | [EA]4 [EA]2 | (A2 B2) [Ec]2 | [Dd]4 [Ad]2 | %12
 [A^d]4 [Ad]2 | [Ae]4 [Ac]2 | c4 [GB]2 | A6 |] %16
V:2
 x6 | x6 | x6 | x6 | x6 | x6 | x2 ^D4 | x6 | x6 | x6 | E4 x2 | x6 | x6 | x6 | (E2 F2) x2 | A6 |] %16
V:3
 [A,,E,]2 [A,,E,]2 [A,,F,]2 | [A,,E,]4 [A,,G,]2 | (A,2 =G,2) [A,,G,]2 | [D,F,]6 | %4
 [D,G,]2 [D,A,]2 [D,B,]2 | [C,A,]4 [B,,B,]2 | ([A,,C]2 B,2) A,2 | [E,G,]6 | %8
 [D,G,]2 [D,A,]2 [D,B,]2 | [C,A,]4 [A,C]2 | (C2 B,2) [^G,A,]2 | [F,A,]4 [F,A,]2 | %12
 (A,2 B,2) [^F,=C]2 | [E,C]4 [E,E]2 | (C2 D2) [E,D]2 | [A,,C]6 |] %16
V:4
 x6 | x6 | A,,4 x2 | x6 | x6 | x6 | x2 B,,4 | x6 | x6 | x6 | =G,4 x2 | x6 | =F,4 x2 | x6 | E,4 x2 | %15
 x6 |] %16

